img/choose-card-img-03.svg

<svg width="36" height="48" viewBox="0 0 36 48" fill="none" xmlns="http://www.w3.org/2000/svg">
<path d="M9.06411 33.9949C8.25304 33.1802 8.67584 33.4099 6.71958 32.8839C5.83197 32.6449 5.05171 32.1855 4.34611 31.6352L0.111574 42.0639C-0.298159 43.0736 0.467174 44.1705 1.55171 44.1292L6.46944 43.9408L9.85184 47.5296C10.5985 48.3208 11.9089 48.0742 12.3186 47.0646L17.1766 35.1002C16.1649 35.6664 15.0421 35.9983 13.881 35.9983C12.061 35.9983 10.3512 35.2867 9.06411 33.9949ZM35.7276 42.0639L31.493 31.6352C30.7874 32.1864 30.0072 32.6449 29.1196 32.8839C27.153 33.4127 27.5842 33.1821 26.775 33.9949C25.488 35.2867 23.7772 35.9983 21.9572 35.9983C20.7961 35.9983 19.6733 35.6655 18.6616 35.1002L23.5196 47.0646C23.9293 48.0742 25.2406 48.3208 25.9864 47.5296L29.3697 43.9408L34.2874 44.1292C35.372 44.1705 36.1373 43.0727 35.7276 42.0639ZM24.5462 31.8733C25.9724 30.4155 26.1357 30.5411 28.1666 29.9852C29.463 29.6299 30.4766 28.5939 30.8238 27.2683C31.522 24.6058 31.3409 24.9274 33.2458 22.9792C34.195 22.0089 34.5656 20.5942 34.2184 19.2686C33.5212 16.608 33.5202 16.9792 34.2184 14.3158C34.5656 12.9902 34.195 11.5755 33.2458 10.6052C31.3409 8.65706 31.522 8.97769 30.8238 6.31613C30.4766 4.9905 29.463 3.95456 28.1666 3.59925C25.5645 2.88581 25.8781 3.07238 23.9713 1.12331C23.0221 0.153002 21.638 -0.226685 20.3416 0.128627C17.7404 0.841127 18.1034 0.842064 15.4976 0.128627C14.2012 -0.226685 12.817 0.152065 11.8678 1.12331C9.96291 3.07144 10.2765 2.88581 7.67344 3.59925C6.37704 3.95456 5.36344 4.9905 5.01624 6.31613C4.31904 8.97769 4.49917 8.65706 2.59424 10.6052C1.64504 11.5755 1.27357 12.9902 1.62171 14.3158C2.31891 16.9746 2.31984 16.6033 1.62171 19.2677C1.27451 20.5933 1.64504 22.008 2.59424 22.9792C4.49917 24.9274 4.31811 24.6058 5.01624 27.2683C5.36344 28.5939 6.37704 29.6299 7.67344 29.9852C9.76224 30.5571 9.91811 30.4671 11.2929 31.8733C12.5277 33.1361 14.4513 33.3621 15.9353 32.4189C16.5287 32.0405 17.2171 31.8396 17.92 31.8396C18.623 31.8396 19.3113 32.0405 19.9048 32.4189C21.3878 33.3621 23.3114 33.1361 24.5462 31.8733ZM9.11451 16.4946C9.11451 11.523 13.0569 7.49269 17.9196 7.49269C22.7822 7.49269 26.7246 11.523 26.7246 16.4946C26.7246 21.4661 22.7822 25.4964 17.9196 25.4964C13.0569 25.4964 9.11451 21.4661 9.11451 16.4946Z" fill="#00A0C1"/>
</svg>

<svg width="36" height="48" fill="none" xmlns="http://www.w3.org/2000/svg"><path d="M9.064 33.995c-.811-.815-.388-.585-2.344-1.111-.888-.24-1.668-.699-2.374-1.249L.112 42.064c-.41 1.01.355 2.106 1.44 2.065l4.917-.188 3.383 3.589a1.49 1.49 0 0 0 2.467-.465L17.177 35.1c-1.012.566-2.135.898-3.296.898-1.82 0-3.53-.711-4.817-2.003Zm26.664 8.069-4.235-10.429c-.706.551-1.486 1.01-2.373 1.249-1.967.529-1.536.298-2.345 1.11a6.756 6.756 0 0 1-4.818 2.004c-1.16 0-2.284-.332-3.295-.898l4.858 11.965a1.49 1.49 0 0 0 2.466.465l3.384-3.59 4.917.19c1.085.04 1.85-1.057 1.44-2.066Zm-11.182-10.19c1.426-1.458 1.59-1.333 3.62-1.889a3.802 3.802 0 0 0 2.658-2.717c.698-2.662.517-2.34 2.422-4.289.949-.97 1.32-2.385.972-3.71-.697-2.661-.698-2.29 0-4.953a3.901 3.901 0 0 0-.972-3.71c-1.905-1.949-1.724-1.628-2.422-4.29A3.802 3.802 0 0 0 28.167 3.6c-2.603-.713-2.289-.527-4.196-2.476a3.703 3.703 0 0 0-3.63-.994c-2.6.712-2.238.713-4.843 0a3.7 3.7 0 0 0-3.63.994C9.963 3.071 10.277 2.886 7.673 3.6a3.802 3.802 0 0 0-2.657 2.717c-.697 2.662-.517 2.341-2.422 4.29a3.899 3.899 0 0 0-.972 3.71c.697 2.659.698 2.287 0 4.952a3.903 3.903 0 0 0 .972 3.711c1.905 1.948 1.724 1.627 2.422 4.29a3.802 3.802 0 0 0 2.657 2.716c2.09.572 2.245.482 3.62 1.888a3.697 3.697 0 0 0 4.642.546 3.691 3.691 0 0 1 3.97 0 3.696 3.696 0 0 0 4.641-.546ZM9.115 16.493c0-4.971 3.942-9.001 8.805-9.001 4.862 0 8.805 4.03 8.805 9.002 0 4.971-3.943 9.001-8.805 9.001-4.863 0-8.805-4.03-8.805-9.001Z" fill="#00A0C1"/></svg>
